X:441
T: ES WOLLT EIN SCHNEIDER WANDERN
N: E1637A
O: Europa, Mitteleuropa, Deutschland, Wuerttemberg, Stuttgart
R: Staende -, Handwerker - Lied, Schneider
M: 2/4
L: 1/16
K: G
D2 | D2G2G2G2 | G2B2B2
B2 | AcF2AcF2 | G4z2
D2 | D2G2G2G2 | G2B2B2
B2 | AcF2AcF2 | G4z2
D2 | D2D2c2B2 | A6
D2 | D2D2c2B2 | A4z2
D2 | D2G2G2G2 | GBd4
B2 | AcF2AcF2 | G4z2

@@@ Tune index: 5125
